packages/core/src/svgs/tokens/mono/MRS.svg

<svg width="24" height="24" viewBox="0 0 24 24" fill="none" xmlns="http://www.w3.org/2000/svg">
<path d="M7.94894 6.04549C7.94894 6.04549 7.0544 6.31496 7.51446 7.2784C7.51446 7.2784 6.85939 6.94503 6.37267 7.19561C5.88651 7.4473 5.18365 7.78678 4.63416 7.39007C4.08576 6.99448 4.23522 6.28884 4.35468 5.76157C4.47469 5.23374 4.44803 4.4492 3.38236 4.24474C3.38236 4.24474 4.30745 3.99583 4.82695 4.66311C5.34478 5.32986 4.82972 6.27162 5.59926 6.60555C6.36878 6.94058 6.69215 5.661 7.94894 6.04549ZM6.19598 7.77844C6.19598 7.77844 6.1382 8.28573 5.6437 8.34684C5.6437 8.34684 5.80372 9.47084 7.10941 9.04137C7.10941 9.04137 6.94941 9.92316 6.23266 10.222C5.51591 10.5209 3.84018 11.3654 4.0013 14.048C4.0013 14.048 3.19288 12.8012 3.84629 10.5654C4.17855 9.42974 5.42257 8.89912 5.42257 8.89912C5.42257 8.89912 4.76695 8.84467 4.16299 9.40028C4.16299 9.40028 4.63693 7.96569 6.19598 7.77844ZM8.44956 6.03771C7.98395 5.41209 7.42556 5.48765 6.94718 5.73823C6.51102 5.9677 5.88039 6.24662 5.56258 5.83602C4.85028 4.9137 5.70316 4.21363 5.29033 3.36965C4.80694 2.38177 3.11011 2.17452 3.11011 2.17452C4.24355 1.84393 5.60481 2.00006 6.20877 2.499C6.81327 2.99739 6.40545 3.79524 7.02829 4.23696C7.65114 4.67867 8.56568 4.20862 9.09796 4.78258C9.62965 5.35597 9.48692 5.9538 9.32576 6.17216C9.13464 6.43219 8.73681 6.27218 8.39067 6.71056C8.04452 7.14893 8.22843 7.54732 8.22843 7.54732C7.07052 6.62721 8.44956 6.03771 8.44956 6.03771ZM15.9325 14.9592C15.9325 14.9592 15.7748 15.097 15.6814 15.3776C15.5848 15.6721 15.5414 16.0221 15.1002 16.1099C15.1002 16.1099 15.2414 16.0143 15.2769 15.9382C15.3936 15.6859 15.3686 15.1465 15.9325 14.9592ZM11.5466 16.8783C11.566 16.845 11.5682 16.8245 11.6333 16.8316C11.6982 16.8389 12.0227 16.8527 12.1711 16.745C12.3183 16.6361 12.3456 16.7606 12.3055 16.851C12.2644 16.9378 12.2027 17.0122 12.1255 17.0678C12.1255 17.0678 12.2855 17.2017 12.5906 17.1233C12.8961 17.0455 13.0101 16.9949 12.935 17.1411C12.8806 17.2478 12.7467 17.2978 12.6562 17.3462C12.5745 17.3895 12.2672 17.5462 12.1966 17.5951C12.1628 17.6189 12.135 17.6223 12.0883 17.5917C12.0405 17.5611 12.0721 17.4723 12.0144 17.4306C11.9566 17.3895 11.8766 17.4451 11.8421 17.4628C11.8077 17.4818 11.7733 17.5028 11.6771 17.4723C11.581 17.4417 11.416 17.4101 11.4326 17.2528C11.4482 17.0956 11.5237 16.9178 11.5466 16.8783ZM7.96839 14.4336C7.96839 14.4336 7.91005 14.6997 8.16842 15.0965C8.42567 15.4926 9.14852 16.4744 8.54235 17.8695C8.54235 17.8695 7.84616 17.4261 7.86783 16.7871C7.88839 16.1477 8.10896 16.1871 8.07286 15.7954C8.03674 15.4037 7.76838 14.8386 7.96839 14.4336ZM7.74726 13.0196C7.74726 13.0196 7.02997 13.9036 7.52058 14.8648C7.9484 15.702 7.68559 15.891 7.23221 16.7188C6.65993 17.765 7.35833 18.9563 7.35833 18.9563C6.6927 18.773 6.12542 18.0795 6.17265 17.0511C6.19209 16.6121 6.46324 16.061 6.80383 15.4859C7.12387 14.947 6.66048 14.7931 7.06052 13.8297C7.24165 13.3941 7.74726 13.0196 7.74726 13.0196ZM12.9423 10.7526C12.9423 10.7526 12.9372 10.9188 13.0439 10.9188C13.1334 10.9188 13.1312 10.8399 13.1312 10.8399C13.1312 10.8399 13.1978 10.8443 13.2217 10.8321C13.2217 10.8321 13.1796 11.1454 12.9523 11.1454C12.9105 11.1454 12.865 11.0955 12.865 11.0955C12.8295 11.0827 12.804 11.0955 12.8206 11.1522C12.8373 11.2088 12.8383 11.2805 12.9467 11.3428C13.0551 11.4055 13.2134 11.4471 13.3656 11.5689C13.4384 11.6272 13.6279 11.8211 13.7018 11.9395C13.7751 12.0562 13.6929 12.0023 13.6307 11.9695C13.589 11.9478 13.3279 11.7489 13.175 11.6938C13.0218 11.6383 12.8901 11.6522 12.8305 11.5644C12.7722 11.476 12.6684 11.2599 12.664 11.101C12.6601 10.9422 12.6611 10.9322 12.7012 10.9065L12.9423 10.7526ZM13.6701 10.1198C13.7569 10.1865 13.8079 10.1643 13.8607 10.236C13.9135 10.307 13.8235 10.5221 13.7301 10.5676C13.6368 10.6133 13.6035 10.5309 13.6079 10.511C13.6118 10.4904 13.6813 10.3831 13.5401 10.2582C13.3996 10.1325 13.2751 10.1004 13.1567 10.202C13.0473 10.2965 13.0439 10.317 13.0379 10.3965C13.0311 10.4748 12.9929 10.5421 12.79 10.6104C12.5877 10.6787 12.2766 10.6216 11.9938 10.4365C11.7116 10.2515 11.6022 10.0236 11.581 9.86651C11.581 9.86651 11.7821 10.0781 12.1255 10.1371C12.1255 10.1371 12.2705 9.64145 12.839 9.56535C13.0279 9.54032 13.2707 9.67036 13.4139 9.82204C13.5173 9.93029 13.5724 10.0454 13.6701 10.1198ZM12.4005 8.6002C12.2411 8.52686 12.1139 8.46519 12.1195 8.31517C12.1249 8.16516 12.2527 8.01126 12.4878 7.84456C12.7228 7.67788 12.9083 7.62231 13.0712 7.69621C13.6446 7.95513 13.6713 8.03292 13.9835 8.60465C14.0746 8.77245 14.1052 8.94691 14.1674 9.01468C14.2897 9.14638 14.4647 9.24415 14.5853 9.43363C14.7058 9.62304 14.7013 9.90812 14.7502 10.0671C14.8308 10.3265 14.9258 10.3715 14.9703 10.5066C15.0003 10.5999 15.0114 10.7944 15.0019 10.9966C14.9937 11.1982 15.0153 11.2638 15.0364 11.3827C15.0569 11.5016 15.053 11.6182 14.8136 11.5521C14.5736 11.4872 14.5841 11.4244 14.5168 11.3927C14.4064 11.3399 14.2491 11.3477 14.1441 11.3666C13.9601 11.3999 14.0963 11.5917 14.3196 11.6005C14.453 11.6061 14.6763 11.6228 14.8925 11.7505C15.1086 11.8778 15.2642 11.9383 15.3481 12.1211C15.4315 12.3045 15.4742 12.4056 15.7448 12.6029C16.0154 12.7996 16.247 13.1051 16.276 13.2807C16.3054 13.4552 16.3326 13.5823 16.4738 13.8385C16.5626 13.9997 16.5688 14.1525 16.5326 14.3275C16.5071 14.4503 16.4643 14.5408 16.4349 14.6108C16.4065 14.6798 16.3554 14.7253 16.2849 14.6409C16.2142 14.5558 16.107 14.3664 16.062 14.2947C15.9176 14.0685 15.4665 13.9868 15.3459 13.8502C15.2348 13.724 15.2037 13.5613 15.1663 13.4207C15.1298 13.2796 15.0808 13.223 15.0336 13.3985C14.9869 13.5757 15.0559 13.8297 15.1553 14.0497C15.2553 14.2692 15.4176 14.7498 15.3802 15.0498C15.343 15.3498 15.2302 15.5809 15.1525 15.657C15.1181 15.6903 15.018 15.7309 14.8464 15.7015C14.6741 15.6732 14.0785 15.5532 13.7335 15.4987C13.7335 15.4987 13.3517 15.8816 12.9873 16.0899C12.6317 16.2944 12.6538 16.1104 12.8366 15.8816C13.015 15.6577 13.1745 15.3876 13.1789 15.2804C13.1789 15.2804 12.9805 15.1548 13.1983 15.1458C13.4156 15.137 13.5445 15.1582 13.6929 15.2282C13.8418 15.297 14.043 15.4132 13.9358 15.1881C13.8284 14.9637 13.2078 14.4197 13.1618 14.0419C13.1167 13.6713 13.3884 13.1779 13.7146 13.1712C14.0408 13.1652 14.5736 13.4974 14.7424 14.0347C14.7424 14.0347 14.8124 13.8774 14.6835 13.6391C14.5542 13.4019 14.0846 12.8601 13.8029 12.8667C13.5274 12.8723 13.1545 12.9879 12.8461 13.7113C12.6461 14.1808 12.331 14.0752 12.2639 14.0568C12.1849 14.0352 11.995 13.7979 12.1195 13.7014C12.2444 13.6052 12.3867 13.4907 12.4338 13.3363C12.4338 13.3363 11.6966 13.6985 11.1843 13.4335C10.672 13.1696 10.8321 12.7162 10.802 12.5961C10.7765 12.4979 10.7031 12.5018 10.6175 12.6229C10.5315 12.7434 10.347 13.2213 10.7493 13.5691C11.1521 13.9168 11.4826 13.8047 11.6499 13.769C11.8166 13.733 11.8832 13.7941 11.8254 13.893C11.7666 13.9919 11.7688 14.1564 11.9205 14.2719C12.0721 14.3874 12.5755 14.5053 12.565 14.7742C12.5583 14.9487 12.4516 14.8536 12.3689 14.8353C12.2211 14.8014 10.8531 14.4574 10.0686 15.4659C9.85912 15.7355 9.95415 15.7604 10.0348 15.9049C10.0869 15.9988 10.2604 16.545 10.1709 17.2011C10.0981 17.7329 10.1359 17.8995 10.3598 18.1095C10.4542 18.1979 10.732 18.3873 11.0365 18.3474C11.2543 18.3195 11.2343 18.3985 11.2132 18.4551C11.1926 18.5124 11.1632 18.6651 10.8587 18.6829C10.7893 18.6874 9.94637 18.6758 9.6692 18.2013C9.48303 17.8829 9.56418 17.7978 9.40244 17.4228C9.29466 17.1689 9.18019 17.194 9.10352 16.9716C9.03851 16.7844 9.06517 16.6588 9.06796 16.5183C9.07074 16.3772 9.10462 16.3055 9.2363 16.3982C9.368 16.4915 9.48964 16.6038 9.51414 16.6332C9.51414 16.6332 9.51466 16.5183 9.35633 16.2404C9.19853 15.9616 8.09007 14.9859 8.46845 13.7014C8.46845 13.7014 7.92172 13.4812 7.67559 14.2663C7.67559 14.2663 7.53668 13.9496 7.78116 13.5813C7.9645 13.3047 8.2612 13.2746 8.11341 12.6273C8.00062 12.1333 7.86228 11.8 8.19231 11.3144C8.52234 10.8294 8.81849 10.9215 8.81293 10.7159C8.80904 10.5698 8.22009 10.4454 7.83894 11.0737C7.83894 11.0737 7.40667 9.65973 9.51129 9.29916C9.51129 9.29916 8.9335 9.05636 8.16008 9.5048C7.38611 9.95363 7.45723 10.94 7.56669 11.4444C7.67669 11.9488 7.97896 12.6017 7.0333 13.2707C6.38767 13.7263 6.57325 14.153 6.58325 14.6542C6.59381 15.156 6.33267 15.771 6.01931 16.1655C6.01931 16.1655 5.72316 15.0931 6.12765 14.1786C6.53324 13.2651 6.82772 13.1452 6.94773 12.884C7.06607 12.6234 6.94107 12.6489 6.74216 12.7585C6.54213 12.8667 5.08642 13.7213 5.57814 16.7944C5.57814 16.7944 4.39413 15.726 4.44858 14.0536C4.50414 12.3812 5.11699 11.5711 5.55092 11.2116C5.9854 10.8521 6.21321 10.7082 6.25099 11.0861C6.28933 11.4638 6.23377 11.5305 6.03985 11.7539C5.84429 11.9772 5.71594 12.3051 5.73371 12.5929C5.73371 12.5929 6.00708 12.1122 6.40768 11.8783C6.69993 11.7072 6.79549 11.2293 6.8016 10.8771C6.80772 10.5248 7.03496 9.81867 7.60724 9.20193C8.17953 8.58576 8.17063 7.89846 7.52391 8.3185C6.87828 8.73854 6.46101 8.85301 6.10154 8.55465C6.10154 8.55465 6.47324 8.48352 6.51325 8.09848C6.55436 7.71344 6.9394 7.38452 7.51613 7.58509C8.09341 7.78678 8.63569 8.37795 8.9285 8.46296C9.22075 8.54742 9.75632 8.64855 9.97139 8.93079C9.97139 8.93079 9.83255 8.03292 10.3487 7.95569C10.3487 7.95569 10.293 7.21673 9.53359 7.38174C8.86683 7.52787 9.06796 8.13293 9.06796 8.13293C9.06796 8.13293 8.1962 7.60232 8.71848 6.94559C9.22242 6.31218 10.0964 6.35163 10.5015 6.81112C10.5015 6.81112 10.6571 6.51554 10.4493 6.27996C10.2409 6.04382 9.93302 6.32329 9.81193 6.06605C9.6902 5.8088 10.0448 5.66045 9.75191 5.03704C9.45917 4.41254 8.70181 4.19251 8.26842 3.96248C7.83505 3.73191 7.56557 3.19519 7.69614 2.55678C7.69614 2.55678 8.45511 3.47243 9.4864 3.46022C10.3975 3.44909 10.8526 3.20352 11.4294 3.43409C12.0055 3.66468 12.2089 4.07473 12.2522 4.42642C12.2522 4.42642 12.4834 4.24029 12.4144 3.9197C12.3466 3.59912 12.3288 3.49577 12.5989 3.2513C12.5989 3.2513 12.53 3.76969 13.2489 4.22362C13.9691 4.67811 14.613 4.85313 14.6702 5.83713C14.6835 6.05882 14.4514 6.87168 13.8813 7.14949C13.6079 7.28173 13.1412 7.16782 13.1412 7.16782C13.1412 7.16782 14.3386 6.2105 13.155 5.26763C13.155 5.26763 13.4618 5.86381 12.8995 6.40664C12.8995 6.40664 13.1334 5.68378 12.6356 5.56098C12.6356 5.56098 12.8733 5.86547 12.5128 6.2944C12.1516 6.72444 12.4717 6.98281 12.8833 7.24617C12.8833 7.24617 12.226 7.55898 11.9088 7.14782C11.6988 6.87502 12.0566 6.4483 11.9321 5.98937C11.9144 5.92269 11.8582 5.54598 11.0616 5.21373C10.2653 4.88091 10.2869 4.80257 10.1058 4.60756C10.1058 4.60756 10.1314 4.86314 10.3576 5.15206C10.6104 5.47653 10.9092 5.53266 11.0154 5.72601C11.1209 5.9177 11.1304 6.1944 11.216 6.30496C11.3432 6.46886 11.5104 6.51775 11.5838 6.705C11.6577 6.89168 11.7199 7.10338 11.5711 7.53232C11.5711 7.53232 11.3105 7.57953 11.3315 7.25061C11.3516 6.9228 11.2721 6.78112 11.0181 6.77279C11.0181 6.77279 11.151 6.93058 11.1404 7.15505C11.1292 7.3784 10.9265 7.49397 10.9682 7.60121C11.0171 7.72678 11.1992 7.75734 11.3626 7.94069C11.5254 8.12403 11.7904 8.33684 11.9894 8.64965C12.1888 8.96302 12.4345 9.51751 12.1316 9.34639C11.8278 9.17415 11.6832 9.04525 11.3837 9.09692C11.0849 9.14859 10.986 9.46526 10.9698 9.842C10.9532 10.2187 10.8876 10.2292 10.6715 10.3943C10.4559 10.5593 10.2886 10.6332 10.1403 10.9998C9.99084 11.3654 9.68579 11.5655 9.46462 11.6778C9.24298 11.7894 8.81571 11.9378 8.92294 12.4945C9.03017 13.0512 9.40021 13.5869 9.62862 13.793C9.62862 13.793 9.66751 13.4929 9.59297 13.2479C9.51972 13.0023 9.37855 12.6229 9.52633 12.1744C9.6736 11.7266 9.95026 11.6189 10.0169 11.5966C10.0837 11.5755 10.2237 11.521 10.3831 11.1688C10.5414 10.8177 10.6625 10.7105 11.0004 10.6337C11.3387 10.556 12.0738 10.5904 12.3405 10.9149C12.6072 11.2394 12.4127 11.441 12.7372 11.7845C13.0612 12.1277 13.3106 12.1012 13.6074 12.1639C13.9251 12.2322 14.9436 12.6729 14.7307 12.4C14.5363 12.15 14.4202 12.0795 14.208 11.9551C13.9912 11.8272 13.7802 11.7606 13.6446 11.4622C13.5335 11.2177 13.5223 11.1216 13.509 11.0649C13.4968 11.0083 13.4963 10.9171 13.6067 10.8871C13.7173 10.8583 14.0068 10.8277 14.0729 10.5343C14.1257 10.3009 14.0263 9.95091 13.9907 9.8704C13.9168 9.70199 13.719 9.69862 13.6223 9.60528C13.4834 9.472 13.0583 8.89856 12.8711 8.788C12.7705 8.72855 12.4922 8.64243 12.4005 8.6002ZM14.7613 15.9827C14.7613 15.9827 14.5363 16.0559 14.3496 15.9604C14.3496 15.9604 14.1118 16.2594 13.8191 16.385C13.5634 16.4939 13.4302 16.5355 13.569 16.3449C13.6757 16.1966 13.6946 16.2115 13.8274 16.0904C13.9607 15.9682 14.054 15.8337 14.1346 15.7659C14.2329 15.6821 14.3313 15.7243 14.7613 15.9827Z" fill="white"/>
<path d="M16.3297 15.4791C15.3279 17.1437 13.8138 18.8638 11.5247 20.2607C11.3187 20.1344 11.1157 20.0035 10.9158 19.8679C11.0914 19.8347 11.2582 19.7648 11.4049 19.6628C11.5517 19.5606 11.6752 19.4288 11.7675 19.2755C11.9725 18.9411 12.0104 18.581 12.1964 18.4366C12.3937 18.2832 12.6531 18.221 12.8488 18.0066C13.2254 17.5954 13.2394 17.1048 13.2394 17.1048C13.2394 17.1048 13.376 17.0987 13.5022 17.0732C13.6376 17.0453 13.7683 16.992 13.931 16.9886C14.1677 16.9847 14.4694 17.1036 14.7006 17.052C14.9818 16.9886 15.1784 16.9164 15.2857 16.8214C15.7723 16.3892 15.7057 15.9485 15.8895 15.8046C15.9891 15.7258 16.1613 15.6208 16.3297 15.4791ZM16.8575 14.5179C18.2865 11.653 18.2877 9.18837 18.2877 9.18837C17.472 8.65331 16.3353 7.9799 14.2761 7.6521C14.3362 7.84601 14.4011 8.08437 14.4178 8.25161C14.4349 8.42829 14.4867 8.38495 14.6028 8.48218C14.72 8.58053 14.9055 8.76444 14.9734 8.94335C15.0412 9.12336 15.0856 9.36561 15.149 9.53115C15.2123 9.69735 15.3734 10.1646 15.3834 10.3812C15.3929 10.5968 15.1739 11.1308 15.2662 11.3147C15.4734 11.7303 16.1535 11.9659 16.3574 12.3842C16.5324 12.7437 16.5385 12.9644 16.6008 13.2449C16.6635 13.5249 16.9498 14.0022 16.8642 14.4817L16.8575 14.5179Z" fill="white"/>
<path d="M3.18013 10.392C3.10663 9.75467 3.09157 9.11187 3.13512 8.47177C3.422 8.29009 3.71247 8.11411 4.00632 7.94394C4.05632 8.00394 4.15467 8.11062 4.25912 8.1484C4.25912 8.1484 3.46459 8.69069 3.59573 9.85579C3.59573 9.85579 3.33847 10.0881 3.18013 10.392ZM20.8648 8.47177C19.4107 7.55557 17.95 6.76325 15.7348 6.34766C15.6983 6.61805 15.5973 6.87571 15.4403 7.09885C17.8117 7.49612 19.1373 8.26953 20.0941 8.85237C20.0941 8.85237 20.532 16.5709 11.9989 21.0709C10.1842 20.1119 8.77516 19.0134 7.68115 17.8761C7.65782 18.2061 7.75894 18.7584 8.24011 19.554C9.33466 20.4831 10.5776 21.2798 11.9999 21.9999C15.1536 20.4053 17.4238 18.4317 19.1424 15.4887C20.5187 13.0922 21.012 10.4676 20.8648 8.47177Z" fill="white"/>
</svg>

<svg xmlns="http://www.w3.org/2000/svg" width="24" height="24" fill="none" viewBox="0 0 24 24">
    <path fill="#fff" d="M7.949 6.045s-.895.27-.435 1.233c0 0-.655-.333-1.141-.082s-1.19.59-1.739.194c-.548-.396-.399-1.101-.28-1.628.12-.528.094-1.313-.972-1.517 0 0 .925-.25 1.445.418.518.667.003 1.609.772 1.943.77.335 1.093-.945 2.35-.56M6.196 7.778s-.058.508-.552.569c0 0 .16 1.124 1.465.694 0 0-.16.882-.876 1.181-.717.299-2.393 1.143-2.232 3.826 0 0-.808-1.247-.155-3.483C4.18 9.43 5.423 8.9 5.423 8.9s-.656-.054-1.26.501c0 0 .474-1.434 2.033-1.622m2.254-1.74c-.466-.626-1.024-.55-1.503-.3-.436.23-1.067.509-1.384.098-.713-.922.14-1.622-.273-2.466-.483-.988-2.18-1.195-2.18-1.195 1.134-.332 2.495-.176 3.1.323.604.498.196 1.296.82 1.738.622.442 1.537-.028 2.069.546.532.573.389 1.17.228 1.39-.191.26-.59.1-.935.538s-.163.836-.163.836c-1.157-.92.222-1.51.222-1.51m7.483 8.921s-.158.138-.252.419c-.096.294-.14.644-.58.732 0 0 .14-.096.176-.172.117-.252.092-.792.656-.979m-4.386 1.92c.019-.034.021-.055.086-.047.065.007.39.02.538-.087.147-.109.175.016.135.106a.56.56 0 0 1-.18.217s.16.134.465.055c.305-.078.42-.128.344.018-.054.107-.188.157-.279.205-.082.044-.389.2-.46.25-.033.023-.061.026-.108-.004s-.016-.12-.074-.161-.137.014-.172.032-.069.04-.165.01c-.096-.031-.261-.063-.244-.22.015-.157.09-.335.114-.375m-3.579-2.445s-.058.266.2.663c.258.396.98 1.377.374 2.772 0 0-.696-.443-.674-1.082.02-.64.241-.6.205-.992-.036-.391-.305-.956-.105-1.361m-.22-1.414s-.718.884-.227 1.845c.427.837.165 1.026-.289 1.854-.572 1.046.126 2.237.126 2.237-.665-.183-1.233-.876-1.185-1.905.02-.439.29-.99.63-1.565.32-.539-.143-.693.258-1.656.18-.436.686-.81.686-.81m5.194-2.267s-.005.166.102.166c.09 0 .087-.08.087-.08s.067.005.09-.007c0 0-.041.313-.269.313-.041 0-.087-.05-.087-.05-.036-.012-.061 0-.044.057.016.057.017.129.126.19.108.063.266.105.419.227.072.058.262.252.336.37.073.117-.01.063-.071.03-.042-.021-.303-.22-.456-.275s-.285-.042-.344-.13-.163-.304-.167-.463-.003-.169.037-.195zm.728-.633c.087.067.138.044.19.116.054.071-.037.286-.13.332-.093.045-.127-.037-.122-.057.004-.02.073-.128-.068-.253-.14-.125-.265-.158-.383-.056-.11.095-.113.115-.12.194s-.044.146-.247.214c-.202.069-.513.012-.796-.173-.282-.185-.392-.413-.413-.57 0 0 .201.211.545.27 0 0 .145-.496.713-.572.189-.025.432.105.575.257.103.108.158.223.256.298M12.4 8.6c-.159-.073-.286-.135-.28-.285s.133-.304.368-.47c.235-.167.42-.223.583-.149.574.26.6.337.912.909.092.167.122.342.184.41.123.131.298.23.418.419s.116.474.165.633c.08.26.176.304.22.44.03.093.041.287.032.49-.008.201.013.267.034.386.02.119.017.235-.222.17-.24-.066-.23-.129-.297-.16-.11-.053-.268-.045-.373-.026-.184.033-.048.225.176.233.133.006.356.023.572.15.217.128.372.188.456.371.083.184.126.285.397.482.27.197.502.502.531.678.03.174.057.301.198.557a.67.67 0 0 1 .059.49c-.026.122-.069.213-.098.283s-.08.114-.15.03c-.07-.085-.178-.275-.223-.346-.144-.226-.596-.308-.716-.445-.111-.126-.142-.289-.18-.43-.036-.14-.085-.197-.132-.021s.022.43.121.65c.1.22.263.7.225 1-.037.3-.15.532-.228.608-.034.033-.134.074-.306.044-.172-.028-.768-.148-1.113-.202 0 0-.381.383-.746.59-.355.205-.333.021-.15-.207.178-.224.338-.494.342-.602 0 0-.199-.125.02-.134.217-.009.345.012.494.082.149.069.35.185.243-.04-.108-.224-.728-.768-.774-1.146-.045-.37.226-.864.553-.87.326-.007.859.325 1.027.863 0 0 .07-.158-.059-.396-.129-.237-.598-.779-.88-.772-.276.005-.649.12-.957.844-.2.47-.515.364-.582.346-.08-.022-.269-.26-.144-.356.124-.096.267-.21.314-.365 0 0-.737.362-1.25.098-.512-.264-.352-.718-.382-.838-.025-.098-.099-.094-.184.027-.087.12-.271.598.131.946.403.348.734.236.9.2.168-.036.234.025.176.124s-.056.263.096.379c.151.115.655.233.644.502-.007.175-.113.08-.196.061-.148-.034-1.516-.378-2.3.63-.21.27-.115.295-.034.44.052.094.225.64.136 1.296-.073.532-.035.698.189.909.094.088.372.277.677.237.217-.027.197.051.176.108-.02.057-.05.21-.354.228-.07.004-.913-.007-1.19-.482-.186-.318-.105-.403-.267-.778-.107-.254-.222-.229-.298-.451-.065-.188-.039-.313-.036-.454.003-.14.037-.213.168-.12.132.093.254.206.278.235 0 0 0-.115-.158-.393-.157-.278-1.266-1.254-.888-2.539 0 0-.546-.22-.792.565 0 0-.14-.316.105-.685.184-.276.48-.306.332-.954-.112-.494-.25-.827.08-1.313.33-.485.625-.393.62-.598-.004-.146-.593-.27-.974.358 0 0-.432-1.414 1.672-1.775 0 0-.577-.243-1.35.206-.775.449-.704 1.435-.594 1.94s.412 1.157-.534 1.826c-.645.455-.46.882-.45 1.383.01.502-.25 1.117-.564 1.512 0 0-.296-1.073.109-1.987s.7-1.034.82-1.295c.118-.26-.007-.235-.206-.126-.2.109-1.656.963-1.164 4.036 0 0-1.184-1.068-1.13-2.74.056-1.673.669-2.483 1.103-2.842.434-.36.662-.504.7-.126s-.017.444-.211.668c-.196.223-.324.551-.306.839 0 0 .273-.48.674-.715.292-.17.387-.649.394-1 .006-.353.233-1.06.805-1.676s.564-1.304-.083-.883c-.646.42-1.063.534-1.422.236 0 0 .371-.071.411-.457.041-.385.426-.713 1.003-.513.577.202 1.12.793 1.412.878.293.084.828.186 1.043.468 0 0-.138-.898.378-.975 0 0-.056-.74-.815-.574-.667.146-.466.75-.466.75s-.872-.53-.35-1.186c.504-.634 1.378-.594 1.784-.135 0 0 .155-.295-.053-.531s-.516.043-.637-.214c-.122-.257.233-.406-.06-1.029-.293-.624-1.05-.844-1.484-1.075s-.702-.767-.572-1.405c0 0 .76.915 1.79.903.912-.01 1.367-.256 1.943-.026s.78.64.823.992c0 0 .231-.186.162-.506-.067-.32-.085-.424.185-.669 0 0-.069.519.65.973s1.364.63 1.421 1.613c.014.222-.219 1.035-.789 1.312-.273.133-.74.019-.74.019s1.198-.958.014-1.9c0 0 .307.596-.255 1.139 0 0 .233-.723-.264-.846 0 0 .237.304-.123.733-.361.43-.041.689.37.952 0 0-.657.313-.974-.098-.21-.273.148-.7.023-1.159-.018-.066-.074-.443-.87-.775-.797-.333-.775-.411-.956-.606 0 0 .025.255.252.544.252.325.551.38.657.574.106.192.115.468.201.579.127.164.294.213.368.4s.136.398-.013.827c0 0-.26.048-.24-.281.02-.328-.059-.47-.313-.478 0 0 .133.158.122.382-.01.223-.213.339-.172.446.05.126.231.156.395.34.162.183.427.396.626.709.2.313.445.868.143.696-.304-.172-.449-.3-.748-.25-.3.053-.398.37-.414.746-.017.377-.082.387-.299.552-.215.165-.382.24-.53.606-.15.365-.455.566-.676.678-.222.111-.65.26-.542.816.107.557.477 1.093.706 1.299 0 0 .039-.3-.036-.545-.073-.246-.214-.625-.067-1.074.148-.447.424-.555.49-.577.068-.021.208-.076.367-.428.158-.351.28-.459.617-.535.339-.078 1.074-.044 1.34.28.267.325.073.527.397.87.324.344.574.317.87.38.318.068 1.337.509 1.124.236-.195-.25-.31-.32-.523-.445-.217-.128-.428-.194-.563-.493-.111-.244-.123-.34-.136-.397-.012-.057-.013-.148.098-.178.11-.029.4-.06.466-.353.053-.233-.047-.583-.082-.664-.074-.168-.272-.171-.369-.265-.139-.133-.564-.706-.75-.817-.101-.06-.38-.146-.472-.188m2.361 7.383s-.225.073-.411-.023c0 0-.238.3-.53.425-.257.109-.39.15-.251-.04.107-.148.126-.133.258-.255.134-.122.227-.256.308-.324.098-.084.196-.042.626.217"/>
    <path fill="#fff" d="M16.33 15.48c-1.002 1.664-2.516 3.384-4.805 4.78a16 16 0 0 1-.61-.392 1.27 1.27 0 0 0 .853-.592c.204-.335.242-.695.428-.84.198-.153.457-.215.653-.43.376-.41.39-.901.39-.901s.137-.006.263-.032c.136-.028.266-.081.429-.084.237-.004.538.115.77.063.28-.063.477-.136.585-.23.486-.433.42-.873.604-1.017.1-.08.271-.184.44-.326m.528-.962c1.428-2.865 1.43-5.33 1.43-5.33-.816-.535-1.953-1.208-4.012-1.536.06.194.125.432.142.6.017.176.069.133.185.23.117.099.303.282.37.461.068.18.113.423.176.588.063.166.224.634.234.85s-.21.75-.117.934c.207.415.888.65 1.091 1.07.175.359.181.58.244.86s.349.757.263 1.237z"/>
    <path fill="#fff" d="M3.18 10.392a10.5 10.5 0 0 1-.045-1.92q.43-.273.871-.528a.7.7 0 0 0 .253.204s-.794.543-.663 1.708c0 0-.258.232-.416.536m17.685-1.92c-1.454-.916-2.915-1.709-5.13-2.124a1.7 1.7 0 0 1-.295.75c2.372.398 3.697 1.172 4.654 1.754 0 0 .438 7.719-8.095 12.219-1.815-.96-3.224-2.058-4.318-3.195-.023.33.078.882.56 1.678C9.334 20.484 10.577 21.28 12 22c3.154-1.595 5.424-3.568 7.142-6.511 1.377-2.397 1.87-5.021 1.723-7.017"/>
</svg>
